X: 15888
T: Graih My Chree
R: waltz
M: 3/4
K: Gmajor
G|GB d3d|eg d>B GG|GB d>B cd|ec A3 g/e/|
dB A>G AB|cA G>E DD|AG A2 dd|GG G3||

